src/24x24/places/folder-gruvbox-mix-blue-owncloud.svg

<svg xmlns="http://www.w3.org/2000/svg" width="24" height="24" version="1">
 <rect style="opacity:0.2" width="20" height="12" x="2" y="9.5" rx="1" ry="1"/>
 <path style="fill:#266b79" d="M 2,17 C 2,17.554 2.446,18 3,18 H 21 C 21.554,18 22,17.554 22,17 V 6 C 22,5.446 21.554,5 21,5 H 12 C 10.5,5 10,3 8.5,3 H 3 C 2.446,3 2,3.446 2,4"/>
 <rect style="opacity:0.2" width="20" height="12" x="2" y="8.5" rx="1" ry="1"/>
 <rect style="fill:#dadec0" width="16" height="8" x="4" y="7" rx="1" ry="1"/>
 <rect style="fill:#80aa9e" width="20" height="12" x="2" y="9" rx="1" ry="1"/>
 <path style="opacity:0.1;fill:#dadec0" d="M 3,3 C 2.446,3 2,3.446 2,4 V 4.5 C 2,3.946 2.446,3.5 3,3.5 H 8.5 C 10,3.5 10.5,5.5 12,5.5 H 21 C 21.554,5.5 22,5.946 22,6.5 V 6 C 22,5.446 21.554,5 21,5 H 12 C 10.5,5 10,3 8.5,3 Z"/>
 <path style="fill:#374141" d="m 11.25,10.75 c -0.829907,0 -1.5,0.670093 -1.5,1.5 0,0.407296 0.1613523,0.775906 0.423828,1.045899 0.02147,-0.02301 0.04409,-0.04519 0.06641,-0.06738 0.01077,-0.01071 0.02126,-0.02171 0.03223,-0.03223 0.02316,-0.02223 0.04631,-0.0441 0.07031,-0.06543 8.5e-4,-7.5e-4 0.0021,-0.0012 0.003,-0.0019 0.009,-0.008 0.01823,-0.01559 0.02735,-0.02344 C 10.810444,12.728832 11.378306,12.5 12,12.5 c 0.245914,0 0.483447,0.03601 0.708008,0.102539 0.02718,-0.113161 0.04199,-0.230905 0.04199,-0.352539 0,-0.829907 -0.670093,-1.5 -1.5,-1.5 z m -2,1 c -0.415693,0 -0.75,0.334307 -0.75,0.75 0,0.08628 0.01447,0.169089 0.04101,0.246094 C 8.82591,12.589637 9.152534,12.5 9.5,12.5 c 0.0062,0 0.01238,-5.6e-5 0.01855,0 C 9.506864,12.41828 9.5,12.334896 9.5,12.25 9.5,12.099332 9.51864,11.953067 9.55469,11.813477 9.461797,11.772447 9.358467,11.749997 9.25,11.749997 Z m 4,0 c -0.107962,0 -0.213023,0.01164 -0.314453,0.03321 0.04146,0.148839 0.06445,0.304883 0.06445,0.46679 0,0.150453 -0.0198,0.296139 -0.05566,0.435547 0.503118,0.206017 0.924575,0.571179 1.201172,1.033203 -0.0042,-0.007 -0.0075,-0.01455 -0.01172,-0.02149 0.183554,-0.08855 0.382502,-0.148935 0.591797,-0.177734 0.01581,-0.08748 0.02441,-0.1774 0.02441,-0.269526 0,-0.829907 -0.670093,-1.5 -1.5,-1.5 z m -3.75,1 c -0.967978,0 -1.75,0.782022 -1.75,1.75 0,0.648863 0.351751,1.213415 0.875,1.515625 C 8.796141,15.708409 9.124702,15.5 9.5,15.5 c 0.01689,0 0.0341,1.42e-4 0.05078,10e-4 C 9.517583,15.339005 9.5,15.171699 9.5,15 c 0,-0.568744 0.190992,-1.093483 0.511719,-1.513672 -0.2017917,-0.202105 -0.353666,-0.453699 -0.4375,-0.734375 -0.02473,-10e-4 -0.04923,-0.002 -0.07422,-0.002 z m 2.5,0 c -1.24412,0 -2.25,1.00588 -2.25,2.25 0,1.24412 1.00588,2.25 2.25,2.25 1.24412,0 2.25,-1.00588 2.25,-2.25 0,-1.24412 -1.00588,-2.25 -2.25,-2.25 z m 3,1 c -0.267285,0 -0.520691,0.05931 -0.74707,0.166016 C 14.41129,14.244166 14.5,14.611735 14.5,15 c 0,0.683425 -0.275286,1.303284 -0.720703,1.754883 C 14.09435,17.061343 14.524762,17.25 15,17.25 c 0.967978,0 1.75,-0.782022 1.75,-1.75 0,-0.967978 -0.782022,-1.75 -1.75,-1.75 z M 7.513672,14.268555 C 6.796615,14.381622 6.25,15.000606 6.25,15.75 c 0,0.829907 0.670093,1.5 1.5,1.5 0.324909,0 0.624819,-0.103527 0.870117,-0.278321 C 8.543987,16.830845 8.5,16.67073 8.5,16.5 8.5,16.41319 8.51127,16.329421 8.53223,16.249023 7.917154,15.907827 7.5,15.252107 7.5,14.5 7.5,14.42172 7.5047,14.344418 7.51367,14.268555 Z M 9.5,15.75 c -0.415693,0 -0.75,0.334306 -0.75,0.75 0,0.415693 0.334307,0.75 0.75,0.75 0.3304983,0 0.609461,-0.211308 0.709961,-0.506836 C 9.9427023,16.46875 9.738475,16.133238 9.619141,15.759765 9.580251,15.753565 9.540686,15.749965 9.5,15.749965 Z m 7.484375,0 c -0.05794,0.463332 -0.274331,0.8783 -0.59375,1.1875 C 16.526469,17.126781 16.748067,17.25 17,17.25 c 0.415693,0 0.75,-0.334307 0.75,-0.75 0,-0.415694 -0.334307,-0.75 -0.75,-0.75 -0.0052,0 -0.01046,-1.04e-4 -0.01563,0 z"/>
</svg>

<?xml version="1.0" encoding="UTF-8"?>
<svg width="24" height="24" version="1" xmlns="http://www.w3.org/2000/svg">
 <rect x="2" y="9.5" width="20" height="12" rx="1" ry="1" opacity=".2"/>
 <path d="m2 17c0 0.554 0.446 1 1 1h18c0.554 0 1-0.446 1-1v-11c0-0.554-0.446-1-1-1h-9c-1.5 0-2-2-3.5-2h-5.5c-0.554 0-1 0.446-1 1" fill="#266b79"/>
 <rect x="2" y="8.5" width="20" height="12" rx="1" ry="1" opacity=".2"/>
 <rect x="4" y="7" width="16" height="8" rx="1" ry="1" fill="#dadec0"/>
 <rect x="2" y="9" width="20" height="12" rx="1" ry="1" fill="#80aa9e"/>
 <path d="m3 3c-0.554 0-1 0.446-1 1v0.5c0-0.554 0.446-1 1-1h5.5c1.5 0 2 2 3.5 2h9c0.554 0 1 0.446 1 1v-0.5c0-0.554-0.446-1-1-1h-9c-1.5 0-2-2-3.5-2z" fill="#dadec0" opacity=".1"/>
 <path d="m11.25 10.75c-0.82991 0-1.5 0.67009-1.5 1.5 0 0.4073 0.16135 0.77591 0.42383 1.0459 0.02147-0.02301 0.04409-0.04519 0.06641-0.06738 0.01077-0.01071 0.02126-0.02171 0.03223-0.03223 0.02316-0.02223 0.04631-0.0441 0.07031-0.06543 8.5e-4 -7.5e-4 0.0021-0.0012 3e-3 -0.0019 9e-3 -8e-3 0.01823-0.01559 0.02735-0.02344 0.43732-0.37669 1.0052-0.60552 1.6269-0.60552 0.24591 0 0.48345 0.03601 0.70801 0.10254 0.02718-0.11316 0.04199-0.2309 0.04199-0.35254 0-0.82991-0.67009-1.5-1.5-1.5zm-2 1c-0.41569 0-0.75 0.33431-0.75 0.75 0 0.08628 0.01447 0.16909 0.04101 0.24609 0.2849-0.15646 0.61152-0.24609 0.95899-0.24609 0.0062 0 0.01238-5.6e-5 0.01855 0-0.011686-0.08172-0.01855-0.1651-0.01855-0.25 0-0.15067 0.01864-0.29693 0.05469-0.43652-0.092893-0.04103-0.19622-0.06348-0.30469-0.06348zm4 0c-0.10796 0-0.21302 0.01164-0.31445 0.03321 0.04146 0.14884 0.06445 0.30488 0.06445 0.46679 0 0.15045-0.0198 0.29614-0.05566 0.43555 0.50312 0.20602 0.92458 0.57118 1.2012 1.0332-0.0042-7e-3 -0.0075-0.01455-0.01172-0.02149 0.18355-0.08855 0.3825-0.14894 0.5918-0.17773 0.01581-0.08748 0.02441-0.1774 0.02441-0.26953 0-0.82991-0.67009-1.5-1.5-1.5zm-3.75 1c-0.96798 0-1.75 0.78202-1.75 1.75 0 0.64886 0.35175 1.2134 0.875 1.5156 0.17114-0.30722 0.4997-0.51562 0.875-0.51562 0.01689 0 0.0341 1.42e-4 0.05078 1e-3 -0.033197-0.162-0.05078-0.3293-0.05078-0.501 0-0.56874 0.19099-1.0935 0.51172-1.5137-0.20179-0.2021-0.35367-0.4537-0.4375-0.73438-0.02473-1e-3 -0.04923-2e-3 -0.07422-2e-3zm2.5 0c-1.2441 0-2.25 1.0059-2.25 2.25s1.0059 2.25 2.25 2.25 2.25-1.0059 2.25-2.25-1.0059-2.25-2.25-2.25zm3 1c-0.26728 0-0.52069 0.05931-0.74707 0.16602 0.15836 0.32815 0.24707 0.69572 0.24707 1.084 0 0.68342-0.27529 1.3033-0.7207 1.7549 0.31505 0.30646 0.74546 0.49512 1.2207 0.49512 0.96798 0 1.75-0.78202 1.75-1.75s-0.78202-1.75-1.75-1.75zm-7.4863 0.51856c-0.71706 0.11307-1.2637 0.73205-1.2637 1.4814 0 0.82991 0.67009 1.5 1.5 1.5 0.32491 0 0.62482-0.10353 0.87012-0.27832-0.07613-0.14083-0.12012-0.30095-0.12012-0.47168 0-0.08681 0.01127-0.17058 0.03223-0.25098-0.61508-0.3412-1.0322-0.99692-1.0322-1.749 0-0.07828 0.0047-0.15558 0.01367-0.23144zm1.9863 1.4814c-0.41569 0-0.75 0.33431-0.75 0.75 0 0.41569 0.33431 0.75 0.75 0.75 0.3305 0 0.60946-0.21131 0.70996-0.50684-0.26726-0.27441-0.47149-0.60993-0.59082-0.9834-0.03889-0.0062-0.078455-0.0098-0.11914-0.0098zm7.4844 0c-0.05794 0.46333-0.27433 0.8783-0.59375 1.1875 0.13584 0.18928 0.35744 0.3125 0.60938 0.3125 0.41569 0 0.75-0.33431 0.75-0.75 0-0.41569-0.33431-0.75-0.75-0.75-0.0052 0-0.01046-1.04e-4 -0.01563 0z" fill="#374141"/>
</svg>
